X: 15
T: Peking Duck
C: Neil Barron
P: Tune for "The Water of Fleet"
R: jig
B: Roy Goldring "14 Social Dances"
Z: 2015 John Chambers <jc:trillian.mit.edu>
M: 6/8
L: 1/8
K: A
% - - - - - - - - - - - - - - - - - - - - - - - - -
V: 1
c/d/ |\
"A"e3 e2f | "A"ecA "D"F2A | "A"EFE A2A | "Bm"F2F "E7"efc |\
"A"e3 e2f | "A7"ecA "D"F2E | "B7"F2A "E7"GAB | "A"BAA A2 |]
E |\
"A"EFE A2A | "Bm"F2F "E7"efc | "A"efc ecB | "B7"ABc "E7"B2E |\
"A"EFE A2A | "Bm"F2F "E7"efc | "A"ecA "E7"BAB | "A"cAA A2 |]
E |\
"A"EFE A2A | "Bm"F2F "E7"efc | "A"efc ecB | "B7"ABc "E7"Bcd |\
"A"e3 e2f | "Bm"ecA "E7"F2E | "A"F2A "E7"GAB | "A"BAA A2 |]
% - - - - - - - - - - - - - - - - - - - - - - - - -
V: 2 clef=bass middle=d
z |\
A2[c'a] e2[c'a] | A2[e'c'a] d2[d'a] | A2[c'a] e2[c'a] |\
B2[d'b] e2[d'g] | a2[e'c'] e2[c'a] |
A2[c'a=g] d2a | B2[^d'ba] e2[=d'g] |\
A2[e'c'a] [e'2c'2a2] |]
z |\
A2[c'a] e2[c'a] |
B2[d'b] e2[d'g] | a2[e'c'] e2[c'a] | B2[^d'ba] e2[=d'g] |\
A2[c'a] e2[c'a] | B2[d'b] e2[d'g] |
a2[e'c'] e2[d'g] | A2e c'2 |]
e |\
A2[c'a] e2[c'a] | B2[d'b] e2[d'g] | a2[e'c'] e2[c'a] |
B2[^d'ba] e2[=d'g] | a2[e'c'] e2[c'a] |\
A2[c'a=g] d2a | B2[^d'ba] e2[=d'g] | A2[e'c'a] [e'2c'2a2] |]
